Numix/64/mimetypes/virtualbox-vdi.svg

<?xml version="1.0" encoding="UTF-8" standalone="no"?>
<svg
   xmlns:dc="http://purl.org/dc/elements/1.1/"
   xmlns:cc="http://creativecommons.org/ns#"
   xmlns:rdf="http://www.w3.org/1999/02/22-rdf-syntax-ns#"
   xmlns:svg="http://www.w3.org/2000/svg"
   xmlns="http://www.w3.org/2000/svg"
   xmlns:sodipodi="http://sodipodi.sourceforge.net/DTD/sodipodi-0.dtd"
   xmlns:inkscape="http://www.inkscape.org/namespaces/inkscape"
   width="64px"
   height="64px"
   viewBox="0 0 64 64"
   version="1.1"
   id="svg2"
   inkscape:version="0.91 r13725"
   sodipodi:docname="application-vbox-5_P.svg">
  <metadata
     id="metadata15">
    <rdf:RDF>
      <cc:Work
         rdf:about="">
        <dc:format>image/svg+xml</dc:format>
        <dc:type
           rdf:resource="http://purl.org/dc/dcmitype/StillImage" />
        <dc:title></dc:title>
      </cc:Work>
    </rdf:RDF>
  </metadata>
  <defs
     id="defs13">
    <clipPath
       id="clipPath-419917221">
      <g
         transform="translate(0,-1004.3622)"
         id="g17">
        <path
           inkscape:connector-curvature="0"
           d="m -24,13 c 0,1.105 -0.672,2 -1.5,2 -0.828,0 -1.5,-0.895 -1.5,-2 0,-1.105 0.672,-2 1.5,-2 0.828,0 1.5,0.895 1.5,2 z"
           transform="matrix(15.333333,0,0,11.5,414.99999,878.8622)"
           style="fill:#1890d0"
           id="path19" />
      </g>
    </clipPath>
    <clipPath
       id="clipPath-412789426">
      <g
         transform="translate(0,-1004.3622)"
         id="g12">
        <path
           inkscape:connector-curvature="0"
           d="m -24,13 c 0,1.105 -0.672,2 -1.5,2 -0.828,0 -1.5,-0.895 -1.5,-2 0,-1.105 0.672,-2 1.5,-2 0.828,0 1.5,0.895 1.5,2 z"
           transform="matrix(15.333333,0,0,11.5,414.99999,878.8622)"
           style="fill:#1890d0"
           id="path14" />
      </g>
    </clipPath>
    <clipPath
       id="clipPath4213">
      <g
         transform="translate(0,-1004.3622)"
         id="g4215">
        <path
           inkscape:connector-curvature="0"
           d="m -24,13 c 0,1.105 -0.672,2 -1.5,2 -0.828,0 -1.5,-0.895 -1.5,-2 0,-1.105 0.672,-2 1.5,-2 0.828,0 1.5,0.895 1.5,2 z"
           transform="matrix(15.333333,0,0,11.5,414.99999,878.8622)"
           style="fill:#1890d0"
           id="path4217" />
      </g>
    </clipPath>
    <clipPath
       id="clipPath-419917221-6">
      <g
         transform="translate(0,-1004.3622)"
         id="g17-4">
        <path
           inkscape:connector-curvature="0"
           d="m -24,13 c 0,1.105 -0.672,2 -1.5,2 -0.828,0 -1.5,-0.895 -1.5,-2 0,-1.105 0.672,-2 1.5,-2 0.828,0 1.5,0.895 1.5,2 z"
           transform="matrix(15.333333,0,0,11.5,414.99999,878.8622)"
           style="fill:#1890d0"
           id="path19-0" />
      </g>
    </clipPath>
    <clipPath
       id="clipPath-412789426-7">
      <g
         transform="translate(0,-1004.3622)"
         id="g12-2">
        <path
           inkscape:connector-curvature="0"
           d="m -24,13 c 0,1.105 -0.672,2 -1.5,2 -0.828,0 -1.5,-0.895 -1.5,-2 0,-1.105 0.672,-2 1.5,-2 0.828,0 1.5,0.895 1.5,2 z"
           transform="matrix(15.333333,0,0,11.5,414.99999,878.8622)"
           style="fill:#1890d0"
           id="path14-8" />
      </g>
    </clipPath>
    <clipPath
       id="clipPath4251">
      <g
         transform="translate(0,-1004.3622)"
         id="g4253">
        <path
           inkscape:connector-curvature="0"
           d="m -24,13 c 0,1.105 -0.672,2 -1.5,2 -0.828,0 -1.5,-0.895 -1.5,-2 0,-1.105 0.672,-2 1.5,-2 0.828,0 1.5,0.895 1.5,2 z"
           transform="matrix(15.333333,0,0,11.5,414.99999,878.8622)"
           style="fill:#1890d0"
           id="path4255" />
      </g>
    </clipPath>
  </defs>
  <sodipodi:namedview
     pagecolor="#ffffff"
     bordercolor="#666666"
     borderopacity="1"
     objecttolerance="10"
     gridtolerance="10"
     guidetolerance="10"
     inkscape:pageopacity="0"
     inkscape:pageshadow="2"
     inkscape:window-width="1920"
     inkscape:window-height="1013"
     id="namedview11"
     showgrid="false"
     inkscape:zoom="1"
     inkscape:cx="28.658093"
     inkscape:cy="-5.9384951"
     inkscape:window-x="0"
     inkscape:window-y="27"
     inkscape:window-maximized="1"
     inkscape:current-layer="svg2">
    <inkscape:grid
       type="xygrid"
       id="grid4157" />
  </sodipodi:namedview>
  <path
     inkscape:connector-curvature="0"
     id="path5"
     d="M 10.671875,0 C 9.296875,0 8,1.355469 8,2.789062 L 8,61.210938 C 8,62.566406 9.375,64 10.671875,64 l 42.65625,0 C 54.625,64 56,62.566406 56,61.210938 L 56,18 38,0 Z m 0,0"
     style="fill:#f05617;fill-opacity:1;fill-rule:nonzero;stroke:none" />
  <path
     inkscape:connector-curvature="0"
     id="path7"
     d="m 42,18 14,14 0,-14 z m 0,0"
     style="fill:#000000;fill-opacity:0.19607801;fill-rule:nonzero;stroke:none" />
  <path
     inkscape:connector-curvature="0"
     id="path9"
     d="M 38,0 55.984375,18 40.757812,18 C 39.410156,18 38,16.574219 38,15.226562 Z m 0,0"
     style="fill:#ffffff;fill-opacity:0.39215698;fill-rule:nonzero;stroke:none" />
  <path
     inkscape:connector-curvature="0"
     id="path13"
     d="M 8,48 8,61.33594 C 8,62.63281 9.375,64 10.664062,64 l 42.671876,0 C 54.625,64 56,62.63281 56,61.33594 L 56,48 Z m 0,0"
     style="fill:#000000;fill-opacity:0.19607801;fill-rule:nonzero;stroke:none" />
  <g
     id="g4168"
     transform="translate(1,0)">
    <path
       d="M 20.277895,62 Q 19.823157,60.773829 19.311579,59.227787 18.799999,57.681744 18.345262,56.153473 17.890526,54.607432 17.530527,53.239095 17.170526,51.870759 17,51 l 2.463158,0 q 0.113685,0.852989 0.341052,1.990306 0.227369,1.119549 0.492633,2.32795 0.28421,1.190629 0.587368,2.363488 0.322105,1.155089 0.625263,2.079161 0.303158,-0.906301 0.606316,-2.061389 0.303158,-1.172861 0.568421,-2.36349 0.265263,-1.208401 0.492632,-2.34572 Q 23.404211,51.852989 23.55579,51 L 26,51 q -0.227369,1.066235 -0.568421,2.381259 -0.322105,1.315025 -0.757894,2.772214 -0.416843,1.439419 -0.928422,2.949919 Q 23.233684,60.596122 22.684211,62 l -2.406316,0 z"
       style="font-style:normal;font-variant:normal;font-weight:bold;font-stretch:normal;font-size:medium;line-height:125%;font-family:'Ubuntu Mono';-inkscape-font-specification:'Ubuntu Mono, Bold';text-align:start;letter-spacing:0px;word-spacing:0px;writing-mode:lr-tb;text-anchor:start;fill:#ffffff;fill-opacity:1;stroke:none;stroke-width:1px;stroke-linecap:butt;stroke-linejoin:miter;stroke-opacity:1"
       id="path4159"
       inkscape:connector-curvature="0" />
    <path
       d="m 30.348448,60.126184 q 0.09546,0.01735 0.210025,0.01735 0.114559,0 0.210023,0 0.80191,0 1.336516,-0.277603 0.5537,-0.277602 0.878281,-0.763406 0.343676,-0.485805 0.477328,-1.14511 0.152745,-0.676656 0.152745,-1.474763 0,-0.694006 -0.114559,-1.353311 -0.114558,-0.659307 -0.400955,-1.162461 -0.286395,-0.503154 -0.782816,-0.798107 -0.49642,-0.312303 -1.279236,-0.312303 -0.152745,0 -0.343677,0.01735 -0.19093,0 -0.343675,0.0347 l 0,7.217662 z M 36,56.482652 q 0,1.492114 -0.420047,2.550472 -0.400955,1.041009 -1.126492,1.700315 -0.725537,0.659305 -1.73747,0.971608 Q 31.72315,62 30.520287,62 29.890214,62 29.279236,61.930599 28.687351,61.878545 28,61.739747 L 28,51.260255 Q 28.801909,51.104104 29.508353,51.052054 30.214797,51 30.825776,51 q 1.164678,0 2.119332,0.312303 0.973747,0.312303 1.642004,0.988958 0.668258,0.659306 1.031026,1.700315 Q 36,55.025235 36,56.482648 Z"
       style="font-style:normal;font-variant:normal;font-weight:bold;font-stretch:normal;font-size:medium;line-height:125%;font-family:'Ubuntu Mono';-inkscape-font-specification:'Ubuntu Mono, Bold';text-align:start;letter-spacing:0px;word-spacing:0px;writing-mode:lr-tb;text-anchor:start;fill:#ffffff;fill-opacity:1;stroke:none;stroke-width:1px;stroke-linecap:butt;stroke-linejoin:miter;stroke-opacity:1"
       id="path4161"
       inkscape:connector-curvature="0" />
    <path
       d="m 38,62 0,-1.812601 2.748091,0 0,-7.374799 L 38,52.8126 38,51 l 8,0 0,1.8126 -2.727735,0 0,7.374799 2.727735,0 L 46,62 38,62 Z"
       style="font-style:normal;font-variant:normal;font-weight:bold;font-stretch:normal;font-size:medium;line-height:125%;font-family:'Ubuntu Mono';-inkscape-font-specification:'Ubuntu Mono, Bold';text-align:start;letter-spacing:0px;word-spacing:0px;writing-mode:lr-tb;text-anchor:start;fill:#ffffff;fill-opacity:1;stroke:none;stroke-width:1px;stroke-linecap:butt;stroke-linejoin:miter;stroke-opacity:1"
       id="path4163"
       inkscape:connector-curvature="0" />
  </g>
  <path
     style="fill:#ffffff;fill-opacity:1;fill-rule:nonzero;stroke:none"
     d="m 31.92087,18.820577 c -1.532414,5.855082 -3.122749,11.696691 -4.682765,17.540997 -2.437224,-6.733761 -0.03617,-0.03167 -2.436205,-6.733103 l -4.801901,0 0,2.401214 3.600819,0 3.600817,10.773937 0.457312,0.01191 c 1.224011,-5.667135 2.878834,-11.238649 4.378848,-16.832759 l 0,-0.02183 c 0.927611,3.37586 1.837683,6.757814 2.737692,10.138462 0.843608,-3.179532 1.699639,-6.359839 2.548046,-9.539373 1.87562,4.283272 -0.03581,-0.01904 1.876998,4.28338 l 4.79947,0 -0.0023,-2.413318 -3.600818,0 c -3.07083,-9.147141 -1.8e-5,4.34e-4 -3.075647,-9.352612 -0.848409,3.156787 -1.702071,6.312184 -2.550478,9.464184 -0.858009,-3.245374 -1.734242,-6.490337 -2.625851,-9.726135 l 0.0025,0.0025 z"
     id="path55"
     inkscape:connector-curvature="0"
     sodipodi:nodetypes="ccccccccccccccccccccc" />
</svg>

<svg xmlns="http://www.w3.org/2000/svg" viewBox="0 0 64 64">
 <defs>
  
 </defs>
 <path d="m 10.672 0 c -1.375 0 -2.672 1.355 -2.672 2.789 l 0 58.42 c 0 1.355 1.375 2.789 2.672 2.789 l 42.656 0 c 1.297 0 2.672 -1.434 2.672 -2.789 l 0 -43.21 -18 -18 m -27.328 0" style="fill:#f05617;fill-opacity:1;stroke:none;fill-rule:nonzero"/>
 <path d="m 42 18 14 14 0 -14 z m 0 0" style="fill:#000;fill-opacity:0.196;stroke:none;fill-rule:nonzero"/>
 <path d="m 38 0 17.984 18 -15.227 0 c -1.348 0 -2.758 -1.426 -2.758 -2.773 m 0 -15.227" style="fill:#fff;fill-opacity:0.392;stroke:none;fill-rule:nonzero"/>
 <path d="m 8 48 0 13.336 c 0 1.297 1.375 2.664 2.664 2.664 l 42.672 0 c 1.289 0 2.664 -1.367 2.664 -2.664 l 0 -13.336 m -48 0" style="fill:#000;fill-opacity:0.196;stroke:none;fill-rule:nonzero"/>
 <g transform="translate(1,0)">
  <path d="m 20.278 62 q -0.455 -1.226 -0.966 -2.772 -0.512 -1.546 -0.966 -3.074 -0.455 -1.546 -0.815 -2.914 -0.36 -1.368 -0.531 -2.239 l 2.463 0 q 0.114 0.853 0.341 1.99 0.227 1.12 0.493 2.328 0.284 1.191 0.587 2.363 0.322 1.155 0.625 2.079 0.303 -0.906 0.606 -2.061 0.303 -1.173 0.568 -2.363 0.265 -1.208 0.493 -2.346 q 0.227 -1.137 0.379 -1.99 l 2.444 0 q -0.227 1.066 -0.568 2.381 -0.322 1.315 -0.758 2.772 -0.417 1.439 -0.928 2.95 q -0.512 1.493 -1.061 2.897 l -2.406 0 z" style="fill:#fff;fill-opacity:1;stroke:none"/>
  <path d="m 30.348 60.13 q 0.095 0.017 0.21 0.017 0.115 0 0.21 0 0.802 0 1.337 -0.278 0.554 -0.278 0.878 -0.763 0.344 -0.486 0.477 -1.145 0.153 -0.677 0.153 -1.475 0 -0.694 -0.115 -1.353 -0.115 -0.659 -0.401 -1.162 -0.286 -0.503 -0.783 -0.798 -0.496 -0.312 -1.279 -0.312 -0.153 0 -0.344 0.017 -0.191 0 -0.344 0.035 l 0 7.218 z m 5.652 -3.644 q 0 1.492 -0.42 2.55 -0.401 1.041 -1.126 1.7 -0.726 0.659 -1.737 0.972 q -0.993 0.295 -2.196 0.295 -0.63 0 -1.241 -0.069 -0.592 -0.052 -1.279 -0.191 l 0 -10.479 q 0.802 -0.156 1.508 -0.208 0.706 -0.052 1.317 -0.052 q 1.165 0 2.119 0.312 0.974 0.312 1.642 0.989 0.668 0.659 1.031 1.7 q 0.382 1.024 0.382 2.481" style="fill:#fff;fill-opacity:1;stroke:none"/>
  <path d="m 38 62 0 -1.813 2.748 0 0 -7.375 l -2.748 0 0 -1.813 l 8 0 0 1.813 -2.728 0 0 7.375 2.728 0 l 0 1.813 -8 0" style="fill:#fff;fill-opacity:1;stroke:none"/>
 </g>
 <path d="m 31.921 18.821 c -1.532 5.855 -3.123 11.697 -4.683 17.541 -2.437 -6.734 -0.036 -0.032 -2.436 -6.733 l -4.802 0 0 2.401 3.601 0 3.601 10.774 0.457 0.012 c 1.224 -5.667 2.879 -11.239 4.379 -16.833 l 0 -0.022 c 0.928 3.376 1.838 6.758 2.738 10.138 0.844 -3.18 1.7 -6.36 2.548 -9.539 1.876 4.283 -0.036 -0.019 1.877 4.283 l 4.799 0 -0.002 -2.413 -3.601 0 c -3.071 -9.147 0 0 -3.076 -9.353 -0.848 3.157 -1.702 6.312 -2.55 9.464 -0.858 -3.245 -1.734 -6.49 -2.626 -9.726 l 0.002 0.003 z" style="fill:#fff;fill-opacity:1;stroke:none;fill-rule:nonzero"/>
</svg>
